packages/crs-framework/resources/svg/date-and-time.svg

<svg width="24" height="24" viewBox="0 0 24 24" fill="none" xmlns="http://www.w3.org/2000/svg">
<g clip-path="url(#clip0_298_1651)">
<path d="M13.9047 2.92969V3.85938H6.57874V2.92969C6.57874 2.41836 6.16666 2 5.66299 2C5.15933 2 4.74725 2.41836 4.74725 2.92969V3.85938H3.8315C2.81502 3.85938 2.00916 4.6961 2.00916 5.71875L2 18.7344C2 19.757 2.81502 20.5938 3.8315 20.5938H8.44509C8.13607 20.0119 7.8953 19.3886 7.73338 18.7344H4.74725C4.24358 18.7344 3.8315 18.316 3.8315 17.8047V8.50782L18.4835 8.50782V5.71875C18.4835 4.6961 17.6593 3.85938 16.652 3.85938H15.7362V2.92969C15.7362 2.41836 15.3241 2 14.8205 2C14.3168 2 13.9047 2.41836 13.9047 2.92969Z" fill="#272C37"/>
<path d="M14.9121 14.1909C14.9121 13.8295 15.2039 13.5391 15.567 13.5391H15.6033C15.9665 13.5391 16.2583 13.8295 16.2583 14.1909V16.7976L18.4883 18.1167C18.8072 18.2994 18.9061 18.7066 18.7168 19.0141C18.53 19.3277 18.1276 19.4113 17.8248 19.2341L17.8232 19.2331L15.3162 17.736C15.0592 17.5868 14.9121 17.315 14.9121 17.0303V14.1909Z" fill="#272C37"/>
<path fill-rule="evenodd" clip-rule="evenodd" d="M15.7302 10.5312C12.2723 10.5312 9.47256 13.3245 9.47256 16.7656C9.47256 20.2068 12.2723 23 15.7302 23C19.1938 23 22 20.2072 22 16.7656C22 13.324 19.1938 10.5312 15.7302 10.5312ZM11.1209 16.7656C11.1209 14.2275 13.1862 12.1719 15.7363 12.1719C18.2863 12.1719 20.3517 14.2275 20.3517 16.7656C20.3517 19.3037 18.2863 21.3594 15.7363 21.3594C13.1862 21.3594 11.1209 19.3037 11.1209 16.7656Z" fill="#272C37"/>
</g>
<defs>
<clipPath id="clip0_298_1651">
<rect width="24" height="24" fill="white"/>
</clipPath>
</defs>
</svg>

<svg width="24" height="24" xmlns="http://www.w3.org/2000/svg"><path d="M13.905 2.93v.93H6.579v-.93A.926.926 0 0 0 5.663 2a.926.926 0 0 0-.916.93v.93h-.915c-1.017 0-1.823.836-1.823 1.859L2 18.734c0 1.023.815 1.86 1.832 1.86h4.613a8.125 8.125 0 0 1-.712-1.86H4.747a.926.926 0 0 1-.915-.93V8.509h14.651v-2.79c0-1.022-.824-1.859-1.831-1.859h-.916v-.93A.926.926 0 0 0 14.82 2a.926.926 0 0 0-.915.93ZM14.912 14.19c0-.36.292-.65.655-.65h.036c.364 0 .655.29.655.65v2.608l2.23 1.319c.32.182.418.59.229.897a.652.652 0 0 1-.892.22h-.002l-2.507-1.498a.814.814 0 0 1-.404-.706v-2.84Z"/><path fill-rule="evenodd" clip-rule="evenodd" d="M15.73 10.531c-3.458 0-6.257 2.793-6.257 6.235 0 3.44 2.8 6.234 6.257 6.234 3.464 0 6.27-2.793 6.27-6.234 0-3.442-2.806-6.235-6.27-6.235Zm-4.61 6.235c0-2.538 2.066-4.594 4.616-4.594s4.616 2.055 4.616 4.594c0 2.538-2.066 4.593-4.616 4.593s-4.615-2.055-4.615-4.593Z"/></svg>
